icons/assets/dark/i18n.svg

<svg width="48" height="48" viewBox="0 0 48 48" fill="none" xmlns="http://www.w3.org/2000/svg">
<path d="M6.00001 12H18M30 12H25.5749M18 12V8M18 12H25.5749M25.5749 12C25.5749 12 22.4721 21.7048 18 26.0446C14.1503 29.7805 6.00001 32.7296 6.00001 32.7296M13.0736 18.9645C13.0736 18.9645 14.9231 22.9821 17.4861 25.6242C19.6555 27.8605 23.1595 29.9114 23.1595 29.9114M25.5749 40L28.1135 33.986M40.602 40L38.1327 33.986M28.1135 33.986L33.1925 21.9539L38.1327 33.986M28.1135 33.986H38.1327" stroke="#62646A" stroke-width="3.5" stroke-linecap="round" stroke-linejoin="round"/>
</svg>

<svg width="48" height="48" fill="none" xmlns="http://www.w3.org/2000/svg"><path d="M6 12h12m12 0h-4.425M18 12V8m0 4h7.575m0 0S22.472 21.705 18 26.045C14.15 29.78 6 32.73 6 32.73m7.074-13.765s1.85 4.017 4.412 6.66c2.17 2.235 5.674 4.286 5.674 4.286M25.575 40l2.538-6.014M40.602 40l-2.47-6.014m-10.018 0l5.079-12.032 4.94 12.032m-10.02 0h10.02" stroke="#62646A" stroke-width="3.5" stroke-linecap="round" stroke-linejoin="round"/></svg>
